X:1
T:Medan, 87.87 D
T:Medan, 87.87 D
T:John Robson Sweney, 1879
T:Public Domain Courtesy of the Cyber Hymnal™
C:John Robson Sweney, 1879
Z:Public Domain
Z:Courtesy of the Cyber Hymnal™
%%score ( 1 2 ) 3
L:1/8
Q:1/4=110
M:4/4
K:D
V:1 treble 
V:2 treble 
V:3 bass 
V:1
 [DF]3 [DE] D3 [DE] | [DF]2 [FA]2 [GB]2 [Gd]2 | A3 [GB] [FA]2 [EG]2 | [DF]3 [CE] [CE]4 | %4
 [DF]3 [DE] D3 [DE] | [DF]2 [FA]2 [GB]2 [Gd]2 | A3 [GB] [FA]2 [DF]2 | [CF]3 [CE] D4 | %8
 [Fd]3 [Ge] [Fd]2 [Ac]2 | [GB]3 [Ac] [GB]2 [FA]2 | [Fd]2 [DA]2 [CG]2 [DF]2 | [DF]3 [CE] [CE]4 | %12
 [DF]3 [DE] D3 [DE] | [DF]2 [FA]2 [GB]2 [Gd]2 | A3 [GB] [FA]2 [DF]2 | [CF]3 [CE] D4 |] %16
V:2
 x4 D3 x | x8 | A3 x5 | x8 | x4 D3 x | x8 | A3 x5 | x4 D4 | x8 | x8 | x8 | x8 | x4 D3 x | x8 | %14
 A3 x5 | x4 D4 |] %16
V:3
 [D,A,]3 [D,G,] [D,F,]3 [D,G,] | [D,A,]2 [D,D]2 [G,D]2 [G,B,]2 | [F,D]3 [D,D] [D,D]2 [D,A,]2 | %3
 [A,,A,]3 [A,,A,] [A,,A,]4 | [D,A,]3 [D,G,] [D,F,]3 [D,G,] | [D,A,]2 [D,D]2 [G,D]2 [G,B,]2 | %6
 [F,D]3 [D,D] [D,D]2 [D,A,]2 | [A,,A,]3 [A,,G,] [D,F,]4 | [D,A,]3 [D,A,] [D,A,]2 [F,D]2 | %9
 [G,D]3 [G,D] [D,D]2 [D,D]2 | [D,A,]2 [F,A,]2 [E,A,]2 [D,A,]2 | [A,,A,]3 [A,,A,] [A,,A,]4 | %12
 [D,A,]3 [D,G,] [D,F,]3 [D,G,] | [D,A,]2 [D,D]2 [G,D]2 [G,B,]2 | [F,D]3 [D,D] [D,D]2 [D,A,]2 | %15
 [A,,A,]3 [A,,G,] [D,F,]4 |] %16

